X: 682
T: Coming over the Hills
R: reel
%S: s:2 b:8(4+4)
B: Francis O'Neill: "The Dance Music of Ireland" (1907) #682
Z: Frank Nordberg - http://www.musicaviva.com
F: http://www.musicaviva.com/abc/tunes/ireland/oneill-1001/0682/oneill-1001-0682-1.abc
M: C|
L: 1/8
K: G
"^A"|: BdcA d2cA | D>G (3({A}GFG) ABcA | BdcA G2GF | D>F (3({G}FEF) ABcA :|[K:D]
"^B"|: Ad{e}dc d2(dc) | A>d (3({e}dcd) (ef)ge | fdec d2(dc) | AGFG AB=c [1 B :|[2 [1 A |]
